X: 1
T: Jiggernaut, The
M: 6/8
L: 1/8
R: jig
K: Dmaj
|AAA d2f|Adf afd|GGG B2d|GBd gdB|
AAA c2e|Ace geg|f2d e2c|d2B cBA|
d3 A2d|Adf afd|B3 G2B|GBd gdB|
c3 A2c|Ace geg|fdf gec| edc d3|
|:a2f d2f|Adf afd|g2d B2d|GBd gdB|
[1e2c A2c|Ace geg|a3g3|f3e3:|
[2e2c A2c|Ace geg|fdf gec|edc d3||
|:dfd A2d|Adf afd|BdB G2B|GBd gdB|
[1cec A2c|Ace geg|A3c3|e3a3:|
[2cec A2c|Ace geg|fdf gec|edc d3||
